Newaita-dark/apps/64/vmware-workstation.svg

<?xml version="1.0" encoding="UTF-8"?>
<svg xmlns="http://www.w3.org/2000/svg" xmlns:xlink="http://www.w3.org/1999/xlink" width="64pt" height="64pt" viewBox="0 0 64 64" version="1.1">
<defs>
<linearGradient id="linear0" gradientUnits="userSpaceOnUse" x1="254" y1="233.5" x2="254" y2="254.666672" gradientTransform="matrix(0.315819,0,0,0.125012,-85.371006,25.554526)">
<stop offset="0" style="stop-color:rgb(0%,0%,0%);stop-opacity:0.27451;"/>
<stop offset="1" style="stop-color:rgb(0%,0%,0%);stop-opacity:0;"/>
</linearGradient>
<radialGradient id="radial0" gradientUnits="userSpaceOnUse" cx="450.908936" cy="189.579361" fx="450.908936" fy="189.579361" r="21.166656" gradientTransform="matrix(0.000000348341,-0.156265,-0.281277,-0.000000203077,96.323036,125.867621)">
<stop offset="0" style="stop-color:rgb(0%,0%,0%);stop-opacity:0.313725;"/>
<stop offset="0.222222" style="stop-color:rgb(0%,0%,0%);stop-opacity:0.27451;"/>
<stop offset="1" style="stop-color:rgb(0%,0%,0%);stop-opacity:0;"/>
</radialGradient>
<radialGradient id="radial1" gradientUnits="userSpaceOnUse" cx="450.908936" cy="189.579361" fx="450.908936" fy="189.579361" r="21.166656" gradientTransform="matrix(-0.000000348341,0.156265,0.281277,0.000000203077,-39.432186,-16.378002)">
<stop offset="0" style="stop-color:rgb(0%,0%,0%);stop-opacity:0.313725;"/>
<stop offset="0.222222" style="stop-color:rgb(0%,0%,0%);stop-opacity:0.27451;"/>
<stop offset="1" style="stop-color:rgb(0%,0%,0%);stop-opacity:0;"/>
</radialGradient>
<radialGradient id="radial2" gradientUnits="userSpaceOnUse" cx="450.908936" cy="189.579361" fx="450.908936" fy="189.579361" r="21.166656" gradientTransform="matrix(-0.000000348341,-0.156265,0.281277,-0.000000203077,-39.432186,125.867621)">
<stop offset="0" style="stop-color:rgb(0%,0%,0%);stop-opacity:0.313725;"/>
<stop offset="0.222222" style="stop-color:rgb(0%,0%,0%);stop-opacity:0.27451;"/>
<stop offset="1" style="stop-color:rgb(0%,0%,0%);stop-opacity:0;"/>
</radialGradient>
<radialGradient id="radial3" gradientUnits="userSpaceOnUse" cx="450.908936" cy="189.579361" fx="450.908936" fy="189.579361" r="21.166656" gradientTransform="matrix(0.000000348341,0.156265,-0.281277,0.000000203077,96.323033,-16.378003)">
<stop offset="0" style="stop-color:rgb(0%,0%,0%);stop-opacity:0.313725;"/>
<stop offset="0.222222" style="stop-color:rgb(0%,0%,0%);stop-opacity:0.27451;"/>
<stop offset="1" style="stop-color:rgb(0%,0%,0%);stop-opacity:0;"/>
</radialGradient>
<linearGradient id="linear1" gradientUnits="userSpaceOnUse" x1="227.541672" y1="222.916672" x2="227.541672" y2="-105.166656" gradientTransform="matrix(0.125012,0,0,0.125012,0,26.877566)">
<stop offset="0" style="stop-color:rgb(100%,65.490196%,14.901961%);stop-opacity:1;"/>
<stop offset="1" style="stop-color:rgb(100%,71.764706%,30.196078%);stop-opacity:1;"/>
</linearGradient>
<linearGradient id="linear2" gradientUnits="userSpaceOnUse" x1="1040" y1="1415.118164" x2="1040" y2="175.118134" gradientTransform="matrix(0.0330761,0,0,0.0330761,0,0)">
<stop offset="0" style="stop-color:rgb(100%,80%,50.196078%);stop-opacity:1;"/>
<stop offset="1" style="stop-color:rgb(100%,87.843137%,69.803922%);stop-opacity:1;"/>
</linearGradient>
</defs>
<g id="surface1">
<path style=" stroke:none;fill-rule:nonzero;fill:url(#linear0);" d="M 13.230469 54.746094 L 43.660156 54.746094 L 43.660156 57.390625 L 13.230469 57.390625 Z M 13.230469 54.746094 "/>
<path style=" stroke:none;fill-rule:nonzero;fill:url(#radial0);" d="M 43.660156 54.746094 L 48.953125 54.746094 L 48.953125 52.097656 L 43.660156 52.097656 Z M 43.660156 54.746094 "/>
<path style=" stroke:none;fill-rule:nonzero;fill:url(#radial1);" d="M 13.230469 54.746094 L 7.9375 54.746094 L 7.9375 57.390625 L 13.230469 57.390625 Z M 13.230469 54.746094 "/>
<path style=" stroke:none;fill-rule:nonzero;fill:url(#radial2);" d="M 13.230469 54.746094 L 7.9375 54.746094 L 7.9375 52.097656 L 13.230469 52.097656 Z M 13.230469 54.746094 "/>
<path style=" stroke:none;fill-rule:nonzero;fill:url(#radial3);" d="M 43.660156 54.746094 L 48.953125 54.746094 L 48.953125 57.390625 L 43.660156 57.390625 Z M 43.660156 54.746094 "/>
<path style=" stroke:none;fill-rule:nonzero;fill:url(#linear1);" d="M 13.230469 13.730469 C 10.296875 13.730469 7.9375 16.089844 7.9375 19.023438 L 7.9375 49.453125 C 7.9375 52.382812 10.296875 54.746094 13.230469 54.746094 L 43.660156 54.746094 C 46.59375 54.746094 48.953125 52.382812 48.953125 49.453125 L 48.953125 19.023438 C 48.953125 16.089844 46.59375 13.730469 43.660156 13.730469 Z M 18.523438 21.667969 L 38.367188 21.667969 C 39.835938 21.667969 41.015625 22.847656 41.015625 24.316406 L 41.015625 44.160156 C 41.015625 45.625 39.835938 46.804688 38.367188 46.804688 L 18.523438 46.804688 C 17.058594 46.804688 15.875 45.625 15.875 44.160156 L 15.875 24.316406 C 15.875 22.847656 17.058594 21.667969 18.523438 21.667969 Z M 18.523438 21.667969 "/>
<path style=" stroke:none;fill-rule:nonzero;fill:url(#linear2);" d="M 21.167969 5.792969 C 18.238281 5.792969 15.875 8.152344 15.875 11.085938 L 15.875 13.730469 L 46.304688 13.730469 C 47.773438 13.730469 48.953125 14.910156 48.953125 16.375 L 48.953125 36.222656 C 48.953125 37.6875 47.773438 38.867188 46.304688 38.867188 L 26.460938 38.867188 C 24.996094 38.867188 23.816406 37.6875 23.816406 36.222656 L 23.816406 21.667969 L 18.523438 21.667969 C 17.058594 21.667969 15.875 22.847656 15.875 24.316406 L 15.875 41.515625 C 15.875 44.445312 18.238281 46.804688 21.167969 46.804688 L 51.597656 46.804688 C 54.53125 46.804688 56.890625 44.445312 56.890625 41.515625 L 56.890625 11.085938 C 56.890625 8.152344 54.53125 5.792969 51.597656 5.792969 Z M 21.167969 5.792969 "/>
<path style=" stroke:none;fill-rule:nonzero;fill:rgb(0%,0%,0%);fill-opacity:0.156863;" d="M 26.460938 13.03125 C 25.765625 13.03125 25.136719 13.296875 24.667969 13.730469 L 46.304688 13.730469 C 47.773438 13.730469 48.953125 14.910156 48.953125 16.375 L 48.953125 15.679688 C 48.953125 14.210938 47.773438 13.03125 46.304688 13.03125 Z M 15.875 40.816406 L 15.875 41.515625 C 15.875 44.445312 18.238281 46.804688 21.167969 46.804688 L 51.597656 46.804688 C 54.53125 46.804688 56.890625 44.445312 56.890625 41.515625 L 56.890625 40.816406 C 56.890625 43.746094 54.53125 46.109375 51.597656 46.109375 L 21.167969 46.109375 C 18.238281 46.109375 15.875 43.746094 15.875 40.816406 Z M 15.875 40.816406 "/>
<path style=" stroke:none;fill-rule:nonzero;fill:rgb(100%,100%,100%);fill-opacity:0.313725;" d="M 13.230469 13.730469 C 10.296875 13.730469 7.9375 16.089844 7.9375 19.023438 L 7.9375 19.683594 C 7.9375 16.753906 10.296875 14.390625 13.230469 14.390625 L 43.660156 14.390625 C 46.59375 14.390625 48.953125 16.753906 48.953125 19.683594 L 48.953125 19.023438 C 48.953125 16.089844 46.59375 13.730469 43.660156 13.730469 Z M 15.875 44.160156 L 15.875 44.820312 C 15.875 46.289062 17.058594 47.46875 18.523438 47.46875 L 38.367188 47.46875 C 39.042969 47.46875 39.65625 47.21875 40.121094 46.804688 L 18.523438 46.804688 C 17.058594 46.804688 15.875 45.625 15.875 44.160156 Z M 15.875 44.160156 "/>
<path style=" stroke:none;fill-rule:nonzero;fill:rgb(0%,0%,0%);fill-opacity:0.235294;" d="M 18.523438 20.96875 C 17.058594 20.96875 15.875 22.152344 15.875 23.617188 L 15.875 24.316406 C 15.875 22.847656 17.058594 21.667969 18.523438 21.667969 L 38.367188 21.667969 C 39.835938 21.667969 41.015625 22.847656 41.015625 24.316406 L 41.015625 23.617188 C 41.015625 22.152344 39.835938 20.96875 38.367188 20.96875 Z M 7.9375 48.753906 L 7.9375 49.453125 C 7.9375 52.382812 10.296875 54.746094 13.230469 54.746094 L 43.660156 54.746094 C 46.59375 54.746094 48.953125 52.382812 48.953125 49.453125 L 48.953125 48.753906 C 48.953125 51.6875 46.59375 54.046875 43.660156 54.046875 L 13.230469 54.046875 C 10.296875 54.046875 7.9375 51.6875 7.9375 48.753906 Z M 7.9375 48.753906 "/>
<path style=" stroke:none;fill-rule:nonzero;fill:rgb(100%,100%,100%);fill-opacity:0.392157;" d="M 21.167969 5.792969 C 18.238281 5.792969 15.875 8.152344 15.875 11.085938 L 15.875 11.746094 C 15.875 8.8125 18.238281 6.453125 21.167969 6.453125 L 51.597656 6.453125 C 54.53125 6.453125 56.890625 8.8125 56.890625 11.746094 L 56.890625 11.085938 C 56.890625 8.152344 54.53125 5.792969 51.597656 5.792969 Z M 23.816406 36.222656 L 23.816406 36.882812 C 23.816406 38.351562 24.996094 39.53125 26.460938 39.53125 L 46.304688 39.53125 C 47.773438 39.53125 48.953125 38.351562 48.953125 36.882812 L 48.953125 36.222656 C 48.953125 37.6875 47.773438 38.867188 46.304688 38.867188 L 26.460938 38.867188 C 24.996094 38.867188 23.816406 37.6875 23.816406 36.222656 Z M 23.816406 36.222656 "/>
<path style=" stroke:none;fill-rule:nonzero;fill:rgb(12.941177%,12.941177%,12.941177%);fill-opacity:1;" d="M 21.167969 5.605469 C 18.136719 5.605469 15.6875 8.050781 15.6875 11.085938 L 15.6875 13.730469 L 16.0625 13.730469 L 16.0625 11.085938 C 16.0625 8.253906 18.335938 5.980469 21.167969 5.980469 L 51.597656 5.980469 C 54.429688 5.980469 56.703125 8.253906 56.703125 11.085938 L 56.703125 41.515625 C 56.703125 44.34375 54.429688 46.617188 51.597656 46.617188 L 21.167969 46.617188 C 18.335938 46.617188 16.0625 44.34375 16.0625 41.515625 L 15.6875 41.515625 C 15.6875 44.546875 18.136719 46.992188 21.167969 46.992188 L 51.597656 46.992188 C 54.632812 46.992188 57.078125 44.546875 57.078125 41.515625 L 57.078125 11.085938 C 57.078125 8.050781 54.632812 5.605469 51.597656 5.605469 Z M 43.660156 13.542969 L 43.660156 13.917969 L 46.304688 13.917969 C 47.671875 13.917969 48.765625 15.011719 48.765625 16.375 L 48.765625 36.222656 C 48.765625 37.585938 47.671875 38.679688 46.304688 38.679688 L 26.460938 38.679688 C 25.09375 38.679688 24.003906 37.585938 24.003906 36.222656 L 24.003906 21.667969 L 23.628906 21.667969 L 23.628906 36.222656 C 23.628906 37.789062 24.894531 39.054688 26.460938 39.054688 L 46.304688 39.054688 C 47.875 39.054688 49.140625 37.789062 49.140625 36.222656 L 49.140625 16.375 C 49.140625 14.808594 47.875 13.542969 46.304688 13.542969 Z M 43.660156 13.542969 "/>
<path style=" stroke:none;fill-rule:nonzero;fill:rgb(12.941177%,12.941177%,12.941177%);fill-opacity:1;" d="M 13.230469 13.542969 C 10.199219 13.542969 7.75 15.988281 7.75 19.023438 L 7.75 49.453125 C 7.75 52.484375 10.199219 54.933594 13.230469 54.933594 L 43.660156 54.933594 C 46.691406 54.933594 49.140625 52.484375 49.140625 49.453125 L 49.140625 46.804688 L 48.765625 46.804688 L 48.765625 49.453125 C 48.765625 52.285156 46.492188 54.558594 43.660156 54.558594 L 13.230469 54.558594 C 10.398438 54.558594 8.125 52.285156 8.125 49.453125 L 8.125 19.023438 C 8.125 16.191406 10.398438 13.917969 13.230469 13.917969 L 43.660156 13.917969 C 46.492188 13.917969 48.765625 16.191406 48.765625 19.023438 L 48.765625 36.222656 L 49.140625 36.222656 L 49.140625 19.023438 C 49.140625 15.988281 46.691406 13.542969 43.660156 13.542969 Z M 18.523438 21.480469 C 16.957031 21.480469 15.6875 22.75 15.6875 24.316406 L 15.6875 44.160156 C 15.6875 45.726562 16.957031 46.992188 18.523438 46.992188 L 38.367188 46.992188 C 38.726562 46.992188 39.070312 46.925781 39.382812 46.804688 L 35.0625 46.804688 L 35.0625 46.617188 L 18.523438 46.617188 C 17.15625 46.617188 16.0625 45.527344 16.0625 44.160156 L 16.0625 24.316406 C 16.0625 22.949219 17.15625 21.855469 18.523438 21.855469 L 38.367188 21.855469 C 39.734375 21.855469 40.828125 22.949219 40.828125 24.316406 L 40.828125 38.867188 L 41.203125 38.867188 L 41.203125 24.316406 C 41.203125 22.75 39.933594 21.480469 38.367188 21.480469 Z M 18.523438 21.480469 "/>
</g>
</svg>

<svg xmlns="http://www.w3.org/2000/svg" width="64pt" height="64pt" viewBox="0 0 64 64"><defs><linearGradient id="a" gradientUnits="userSpaceOnUse" x1="254" y1="233.5" x2="254" y2="254.667" gradientTransform="matrix(.31582 0 0 .12501 -85.371 25.555)"><stop offset="0" stop-opacity=".275"/><stop offset="1" stop-opacity="0"/></linearGradient><radialGradient id="b" gradientUnits="userSpaceOnUse" cx="450.909" cy="189.579" fx="450.909" fy="189.579" r="21.167" gradientTransform="matrix(0 -.15626 -.28128 0 96.323 125.868)"><stop offset="0" stop-opacity=".314"/><stop offset=".222" stop-opacity=".275"/><stop offset="1" stop-opacity="0"/></radialGradient><radialGradient id="c" gradientUnits="userSpaceOnUse" cx="450.909" cy="189.579" fx="450.909" fy="189.579" r="21.167" gradientTransform="matrix(0 .15626 .28128 0 -39.432 -16.378)"><stop offset="0" stop-opacity=".314"/><stop offset=".222" stop-opacity=".275"/><stop offset="1" stop-opacity="0"/></radialGradient><radialGradient id="d" gradientUnits="userSpaceOnUse" cx="450.909" cy="189.579" fx="450.909" fy="189.579" r="21.167" gradientTransform="matrix(0 -.15626 .28128 0 -39.432 125.868)"><stop offset="0" stop-opacity=".314"/><stop offset=".222" stop-opacity=".275"/><stop offset="1" stop-opacity="0"/></radialGradient><radialGradient id="e" gradientUnits="userSpaceOnUse" cx="450.909" cy="189.579" fx="450.909" fy="189.579" r="21.167" gradientTransform="matrix(0 .15626 -.28128 0 96.323 -16.378)"><stop offset="0" stop-opacity=".314"/><stop offset=".222" stop-opacity=".275"/><stop offset="1" stop-opacity="0"/></radialGradient><linearGradient id="f" gradientUnits="userSpaceOnUse" x1="227.542" y1="222.917" x2="227.542" y2="-105.167" gradientTransform="translate(0 26.878) scale(.12501)"><stop offset="0" stop-color="#ffa726"/><stop offset="1" stop-color="#ffb74d"/></linearGradient><linearGradient id="g" gradientUnits="userSpaceOnUse" x1="1040" y1="1415.118" x2="1040" y2="175.118" gradientTransform="scale(.03308)"><stop offset="0" stop-color="#ffcc80"/><stop offset="1" stop-color="#ffe0b2"/></linearGradient></defs><path d="M13.23 54.746h30.43v2.645H13.23zm0 0" fill="url(#a)"/><path d="M43.66 54.746h5.293v-2.648H43.66zm0 0" fill="url(#b)"/><path d="M13.23 54.746H7.937v2.645h5.293zm0 0" fill="url(#c)"/><path d="M13.23 54.746H7.937v-2.648h5.293zm0 0" fill="url(#d)"/><path d="M43.66 54.746h5.293v2.645H43.66zm0 0" fill="url(#e)"/><path d="M13.23 13.73a5.28 5.28 0 0 0-5.293 5.293v30.43c0 2.93 2.36 5.293 5.293 5.293h30.43a5.282 5.282 0 0 0 5.293-5.293v-30.43a5.28 5.28 0 0 0-5.293-5.293zm5.293 7.938h19.844a2.64 2.64 0 0 1 2.649 2.648V44.16a2.64 2.64 0 0 1-2.649 2.645H18.523a2.642 2.642 0 0 1-2.648-2.645V24.316a2.643 2.643 0 0 1 2.648-2.648zm0 0" fill="url(#f)"/><path d="M21.168 5.793a5.282 5.282 0 0 0-5.293 5.293v2.644h30.43a2.64 2.64 0 0 1 2.648 2.645v19.848a2.64 2.64 0 0 1-2.648 2.644H26.46a2.639 2.639 0 0 1-2.645-2.644V21.668h-5.293a2.643 2.643 0 0 0-2.648 2.648v17.2c0 2.93 2.363 5.289 5.293 5.289h30.43a5.279 5.279 0 0 0 5.293-5.29v-30.43a5.28 5.28 0 0 0-5.293-5.292zm0 0" fill="url(#g)"/><path d="M26.46 13.031c-.694 0-1.323.266-1.792.7h21.637a2.64 2.64 0 0 1 2.648 2.644v-.695a2.64 2.64 0 0 0-2.648-2.649zM15.876 40.816v.7c0 2.93 2.363 5.289 5.293 5.289h30.43a5.279 5.279 0 0 0 5.293-5.29v-.699c0 2.93-2.36 5.293-5.293 5.293h-30.43a5.285 5.285 0 0 1-5.293-5.293zm0 0" fill-opacity=".157"/><path d="M13.23 13.73a5.28 5.28 0 0 0-5.293 5.293v.66c0-2.93 2.36-5.292 5.293-5.292h30.43a5.282 5.282 0 0 1 5.293 5.293v-.66a5.28 5.28 0 0 0-5.293-5.294zm2.645 30.43v.66a2.643 2.643 0 0 0 2.648 2.649h19.844c.676 0 1.29-.25 1.754-.664H18.523a2.642 2.642 0 0 1-2.648-2.645zm0 0" fill="#fff" fill-opacity=".314"/><path d="M18.523 20.969a2.646 2.646 0 0 0-2.648 2.648v.7a2.643 2.643 0 0 1 2.648-2.649h19.844a2.64 2.64 0 0 1 2.649 2.648v-.699a2.643 2.643 0 0 0-2.649-2.648zM7.938 48.754v.7c0 2.929 2.359 5.292 5.292 5.292h30.43a5.282 5.282 0 0 0 5.293-5.293v-.7a5.28 5.28 0 0 1-5.293 5.294H13.23a5.28 5.28 0 0 1-5.293-5.293zm0 0" fill-opacity=".235"/><path d="M21.168 5.793a5.282 5.282 0 0 0-5.293 5.293v.66a5.282 5.282 0 0 1 5.293-5.293h30.43a5.28 5.28 0 0 1 5.293 5.293v-.66a5.28 5.28 0 0 0-5.293-5.293zm2.648 30.43v.66a2.64 2.64 0 0 0 2.645 2.648h19.844a2.64 2.64 0 0 0 2.648-2.648v-.66a2.64 2.64 0 0 1-2.648 2.644H26.46a2.639 2.639 0 0 1-2.645-2.644zm0 0" fill="#fff" fill-opacity=".392"/><path d="M21.168 5.605a5.472 5.472 0 0 0-5.48 5.48v2.645h.374v-2.644a5.09 5.09 0 0 1 5.106-5.106h30.43a5.09 5.09 0 0 1 5.105 5.106v30.43a5.089 5.089 0 0 1-5.105 5.101h-30.43a5.089 5.089 0 0 1-5.105-5.101h-.375a5.471 5.471 0 0 0 5.48 5.476h30.43a5.469 5.469 0 0 0 5.48-5.476v-30.43a5.47 5.47 0 0 0-5.48-5.48zm22.492 7.938v.375h2.645a2.45 2.45 0 0 1 2.46 2.457v19.848a2.45 2.45 0 0 1-2.46 2.457H26.46a2.447 2.447 0 0 1-2.457-2.457V21.668h-.375v14.555a2.83 2.83 0 0 0 2.832 2.832h19.844a2.83 2.83 0 0 0 2.836-2.832V16.375a2.83 2.83 0 0 0-2.836-2.832zm0 0" fill="#212121"/><path d="M13.23 13.543a5.472 5.472 0 0 0-5.48 5.48v30.43c0 3.031 2.45 5.48 5.48 5.48h30.43c3.031 0 5.48-2.449 5.48-5.48v-2.648h-.374v2.648a5.09 5.09 0 0 1-5.106 5.106H13.23a5.09 5.09 0 0 1-5.105-5.106v-30.43a5.09 5.09 0 0 1 5.105-5.105h30.43a5.09 5.09 0 0 1 5.106 5.105v17.2h.375v-17.2c0-3.035-2.45-5.48-5.48-5.48zm5.293 7.937a2.836 2.836 0 0 0-2.835 2.836V44.16a2.832 2.832 0 0 0 2.835 2.832h19.844c.36 0 .703-.066 1.016-.187h-4.32v-.188h-16.54a2.447 2.447 0 0 1-2.46-2.457V24.316a2.45 2.45 0 0 1 2.46-2.46h19.844a2.45 2.45 0 0 1 2.461 2.46v14.551h.375v-14.55a2.836 2.836 0 0 0-2.836-2.837zm0 0" fill="#212121"/></svg>
